src/assets/icons/icon-home.svg

<svg width="25" height="25" viewBox="0 0 25 25" fill="none" xmlns="http://www.w3.org/2000/svg">
<path d="M12.2171 0.203735C12.0395 0.310289 11.8185 0.439045 11.7318 0.487883C11.6451 0.541159 11.5065 0.661034 11.4285 0.758709C11.3505 0.856384 11.2291 0.967381 11.1555 1.0029C11.0862 1.04286 10.8955 1.19381 10.7352 1.3492C10.5012 1.57119 10.4362 1.66887 10.3885 1.83758C10.3495 1.99297 10.2975 2.07289 10.2022 2.13505C10.1285 2.18388 10.0419 2.27268 10.0072 2.3304C9.97686 2.39256 9.84686 2.49467 9.7212 2.55683C9.58687 2.62342 9.45688 2.72998 9.40488 2.81433C9.35721 2.89425 9.24888 3.01413 9.16222 3.08072C8.99323 3.21836 8.83723 3.49362 8.83723 3.66234C8.83723 3.74669 8.80257 3.78221 8.68124 3.82217C8.46025 3.89765 8.24359 4.11076 8.11359 4.3727C8.05293 4.49702 7.9706 4.61689 7.9316 4.63909C7.76694 4.73677 7.35962 5.18075 7.27729 5.3539C7.21229 5.49153 7.14296 5.56257 7.01296 5.62029C6.84397 5.7002 6.73564 5.8112 6.48431 6.16194C6.41932 6.25518 6.30665 6.40613 6.23732 6.50381C6.16366 6.59704 6.10733 6.7036 6.10733 6.73468C6.10733 6.76575 6.04233 6.82791 5.96867 6.86787C5.77801 6.96111 5.38369 7.39621 5.31869 7.57824C5.28836 7.66259 5.25369 7.72919 5.23202 7.72919C5.16703 7.72919 4.9027 8.00002 4.85504 8.11989C4.82037 8.19981 4.74671 8.26641 4.65571 8.29749C4.39572 8.39516 4.11406 8.80806 4.11406 9.09221C4.11406 9.11885 4.04473 9.16768 3.9624 9.19432C3.73274 9.27424 3.56375 9.44295 3.42075 9.73598C3.25609 10.069 3.01777 10.3132 2.78811 10.3842C2.56712 10.4508 2.32013 10.695 2.2508 10.9125C2.1858 11.1212 2.1078 11.2144 1.89547 11.3387C1.80014 11.3876 1.68748 11.503 1.63548 11.5918C1.58782 11.6762 1.41016 11.8804 1.2455 12.0447C1.0505 12.24 0.942175 12.391 0.920509 12.4798C0.903176 12.5819 0.851178 12.6396 0.734182 12.7018C0.478524 12.835 0.391861 12.977 0.253199 13.4565C0.222867 13.5675 0.153536 13.7496 0.0972042 13.865C-0.076123 14.2246 -0.0111253 14.6997 0.240199 14.9261C0.51319 15.1703 0.933508 15.2147 1.24983 15.0327C1.34949 14.9705 1.48816 14.9217 1.55315 14.9217C1.72215 14.9172 1.99947 14.7751 2.12513 14.6242C2.1858 14.5487 2.27679 14.4644 2.33313 14.4377C2.49779 14.3445 2.67978 14.0381 2.71011 13.8073C2.72745 13.6874 2.75344 13.5897 2.77511 13.5897C2.86611 13.5897 3.37742 13.0392 3.42509 12.8882C3.45109 12.7994 3.51608 12.6796 3.56375 12.6263L3.65041 12.5286L3.77608 12.7328L3.90174 12.9371L3.79774 13.0525C3.58108 13.2923 3.52908 13.5276 3.60708 13.9449C3.65475 14.1802 3.65475 14.2646 3.61141 14.3667C3.53342 14.5532 3.53775 14.9039 3.62441 15.0859C3.68508 15.2236 3.68941 15.2768 3.64175 15.5255C3.61141 15.6809 3.59842 15.8407 3.61141 15.8807C3.62441 15.9162 3.61575 16.036 3.58975 16.147C3.55075 16.2936 3.55508 16.3912 3.59408 16.5555C3.62441 16.6709 3.66341 16.9151 3.68075 17.0972C3.69808 17.2792 3.73708 17.4923 3.77174 17.5722C3.81941 17.6921 3.81507 17.7365 3.74574 17.8919C3.68075 18.0384 3.67208 18.1361 3.69808 18.438C3.71541 18.7044 3.70674 18.8731 3.65908 19.0507C3.57675 19.3615 3.56808 20.498 3.64608 20.6801C3.68075 20.76 3.70241 21.1063 3.71108 21.6924C3.71541 22.1807 3.72408 22.6513 3.72841 22.7357C3.73274 22.8201 3.71974 22.9755 3.70241 23.082C3.66341 23.2996 3.74574 23.6503 3.9364 24.081C4.07073 24.3784 4.23539 24.5649 4.43039 24.6404C4.57771 24.6981 4.89404 24.7025 5.0327 24.6493C5.10203 24.6271 5.26236 24.6448 5.54401 24.7203C5.95133 24.8268 5.96 24.8268 6.36732 24.7558C6.59264 24.7159 6.86563 24.6581 6.97396 24.6271C7.13429 24.5827 7.19496 24.5827 7.31629 24.6359C7.55028 24.7336 9.20555 24.707 9.39188 24.6049C9.55221 24.5161 9.7342 24.5516 9.94653 24.6981C10.1242 24.8268 10.1762 24.8446 10.4405 24.8446C10.6832 24.8446 10.7612 24.8268 10.8738 24.7425L11.0082 24.6404L11.2421 24.7558C11.4935 24.8846 11.4588 24.8846 12.1954 24.7824C12.7891 24.7025 12.8844 24.6937 13.0751 24.7381C13.1834 24.7647 13.3221 24.7647 13.4001 24.7425C13.4954 24.7159 13.5821 24.7203 13.6687 24.7603C13.8421 24.8357 14.1367 24.8357 14.31 24.7603C14.3967 24.7247 14.544 24.7114 14.6957 24.7247C14.8257 24.7336 15.0077 24.7203 15.09 24.6937C15.3327 24.6093 15.7357 24.6182 15.8743 24.7114C15.9696 24.778 16.1083 24.7913 16.6673 24.8046C17.2653 24.818 17.3953 24.8091 17.7419 24.7159L18.1362 24.6137L18.2836 24.7159C18.4829 24.8579 18.9119 25 19.1415 25C19.3929 25 19.5792 24.9023 19.7958 24.6626C19.9605 24.4761 19.9865 24.4628 20.1165 24.4983C20.3288 24.5516 20.5888 24.5338 20.7535 24.445C20.9528 24.3429 21.4381 23.8146 21.4858 23.6459C21.5075 23.5748 21.5378 23.3084 21.5551 23.0642C21.5768 22.7091 21.5681 22.5803 21.5161 22.4516C21.4555 22.305 21.4555 22.2695 21.5075 22.163C21.6071 21.9721 21.6331 21.7367 21.5855 21.5059C21.4728 20.9953 21.4338 20.7778 21.4381 20.7245C21.4381 20.6934 21.4555 20.3826 21.4685 20.0274C21.4815 19.6722 21.5118 19.3215 21.5335 19.2505C21.5985 19.0507 21.6028 18.2204 21.5465 17.9274C21.5161 17.7898 21.4598 17.6166 21.4208 17.5456C21.3471 17.4213 21.3515 17.4168 21.5378 17.146L21.7284 16.8707L21.7414 16.2847C21.7544 15.8274 21.7414 15.6542 21.6851 15.4988C21.6331 15.3523 21.6201 15.1792 21.6288 14.8329C21.6505 13.9849 21.6201 13.5409 21.5335 13.3322C21.4555 13.1502 21.4511 13.1324 21.5205 13.0214C21.5595 12.9548 21.5985 12.8971 21.6028 12.8882C21.6071 12.8838 21.6635 12.9016 21.7284 12.9326C21.7891 12.9593 21.8801 13.0614 21.9278 13.1546C21.9711 13.2434 22.0751 13.3899 22.1531 13.4698C22.2268 13.5542 22.3568 13.7052 22.4348 13.8028C22.5084 13.9005 22.6384 14.0071 22.7164 14.0381C22.7944 14.0648 22.9027 14.1536 22.9547 14.2379C23.0717 14.42 23.3707 14.6331 23.5917 14.6908C24.1377 14.8373 24.454 14.7973 24.727 14.5532C24.9177 14.3844 25 14.1891 25 13.9271C25 13.6696 24.9523 13.5453 24.766 13.3367C24.6577 13.2123 24.6057 13.1013 24.571 12.9104C24.4974 12.4931 24.2807 12.2578 23.8864 12.1645C23.7087 12.1201 23.6567 12.0846 23.5874 11.9603C23.5441 11.876 23.4661 11.7694 23.4141 11.7294C23.3621 11.685 23.2147 11.5119 23.0891 11.3432C22.9634 11.1745 22.7987 10.9747 22.7164 10.8992C22.6384 10.8193 22.5734 10.7305 22.5734 10.695C22.5734 10.6106 22.3004 10.3176 22.1834 10.2821C22.1271 10.2643 22.0491 10.1444 21.9711 9.97129C21.8844 9.77594 21.7978 9.65606 21.6894 9.58503C21.6071 9.52731 21.5248 9.43851 21.5118 9.38523C21.4728 9.2254 21.2995 9.05225 20.9788 8.83914C20.7361 8.68375 20.6625 8.60827 20.6408 8.50616C20.5845 8.23533 20.4198 8.0089 20.1815 7.88902C20.0602 7.82687 19.9215 7.77359 19.8825 7.77359C19.8348 7.77359 19.7698 7.69367 19.7092 7.56936C19.6442 7.42728 19.5532 7.32517 19.4275 7.24525C19.3192 7.17866 19.2369 7.0943 19.2369 7.0499C19.2369 6.89895 19.1112 6.72136 18.8425 6.48161C18.6952 6.35285 18.5479 6.17526 18.5132 6.09091C18.4482 5.93107 18.0062 5.45157 17.7983 5.31394C17.7289 5.26954 17.6769 5.20739 17.6769 5.18075C17.6769 5.10083 17.4473 4.86108 17.2956 4.78117C17.2176 4.74121 17.1569 4.68349 17.1569 4.65241C17.1569 4.55918 16.9663 4.31943 16.78 4.18179C16.6803 4.10632 16.5633 3.96424 16.507 3.84437C16.455 3.73337 16.364 3.60906 16.3076 3.5691C16.2513 3.53358 16.1386 3.40927 16.0606 3.29383C15.961 3.1562 15.8267 3.04077 15.649 2.94309C15.4497 2.83209 15.3587 2.75218 15.2937 2.62786C15.2503 2.53463 15.0943 2.3526 14.947 2.22384C14.7997 2.09509 14.6437 1.91306 14.6004 1.81982C14.518 1.65999 14.271 1.42468 14.1844 1.42468C14.115 1.42468 13.8204 1.03398 13.8204 0.945181C13.8204 0.634396 13.5994 0.31917 13.2527 0.141579C12.8541 -0.0626526 12.6331 -0.0493336 12.2171 0.203735ZM12.7111 2.97417C12.8021 3.04964 12.9581 3.13844 13.0664 3.18284C13.2354 3.24944 13.2787 3.29383 13.4174 3.56466C13.5214 3.76889 13.6297 3.91096 13.7337 3.982C13.8161 4.03972 13.9201 4.14627 13.9634 4.21731C14.0024 4.28835 14.1064 4.39046 14.1887 4.44374C14.271 4.49702 14.3404 4.55918 14.3404 4.58581C14.3404 4.60801 14.3794 4.68793 14.4314 4.75897C14.479 4.83 14.5397 4.9632 14.5657 5.04755C14.6177 5.2429 14.8474 5.50929 15.064 5.62473C15.3413 5.7668 15.4193 5.84672 15.558 6.1131C15.7313 6.45497 15.7833 6.50825 16.0606 6.64144C16.1863 6.7036 16.3206 6.80127 16.3553 6.85455C16.39 6.91227 16.4983 7.00106 16.5936 7.05878C16.7973 7.17422 16.9403 7.36513 16.9403 7.52052C16.9403 7.69811 17.0183 7.86683 17.2349 8.15097C17.4689 8.46176 17.5209 8.5106 17.7029 8.59495C17.7983 8.63935 17.8719 8.73258 17.9542 8.9013C18.0236 9.05225 18.1276 9.181 18.2099 9.23428C18.2879 9.28312 18.3919 9.38079 18.4482 9.45627C18.5002 9.53175 18.6216 9.63386 18.7169 9.6827C18.8339 9.74486 18.9119 9.82477 18.9552 9.93133C18.9899 10.0201 19.0809 10.1489 19.1589 10.2244C19.3582 10.4108 19.4275 10.7039 19.3409 10.9658C19.2975 11.099 19.2845 11.2233 19.3062 11.3432C19.3235 11.4453 19.3409 11.765 19.3409 12.058C19.3452 12.4975 19.3582 12.6174 19.4232 12.7151C19.4882 12.8172 19.4925 12.866 19.4579 12.9815C19.3799 13.2301 19.4015 14.0248 19.4969 14.2379C19.5619 14.3933 19.5705 14.4954 19.5532 14.7973C19.5359 15.0016 19.5012 15.2102 19.4665 15.2635C19.3755 15.4056 19.3019 16.2136 19.3625 16.3957C19.3929 16.4756 19.4275 16.9418 19.4405 17.4301C19.4622 18.2293 19.4579 18.3359 19.3885 18.4735C19.2759 18.6955 19.2845 19.0329 19.4059 19.2727C19.5012 19.4591 19.5012 19.4813 19.4492 19.8143C19.4102 20.0763 19.4059 20.1961 19.4449 20.3249C19.4839 20.467 19.4795 20.5558 19.4102 20.8444C19.3062 21.2617 19.3062 21.3283 19.3885 21.6524C19.4405 21.8611 19.4449 21.9543 19.4015 22.1852C19.3539 22.4427 19.3409 22.4649 19.2152 22.4915C19.1459 22.5048 19.0332 22.527 18.9682 22.5404C18.8989 22.5581 18.7689 22.5359 18.6692 22.496C18.5262 22.4382 18.4092 22.4249 18.1146 22.4471C17.9109 22.4649 17.6899 22.496 17.6293 22.5226C17.5426 22.5537 17.4343 22.5448 17.2219 22.4915C17.0659 22.4516 16.858 22.4249 16.7626 22.4338L16.585 22.4516L16.6196 22.2473C16.637 22.1363 16.6543 21.9765 16.663 21.8921C16.6673 21.8078 16.6976 21.6391 16.7236 21.5236C16.767 21.3505 16.7626 21.2706 16.715 21.1019C16.6716 20.9642 16.6586 20.7778 16.6716 20.5602C16.6933 20.2317 16.6933 19.9298 16.6803 19.6278C16.6716 19.4369 16.7366 18.953 16.8276 18.5445C16.8796 18.3048 16.884 18.1982 16.8493 18.034C16.8233 17.923 16.8016 17.59 16.8016 17.297C16.806 16.6265 16.7496 16.2891 16.5936 16.0094C16.4203 15.7031 16.3206 15.6143 15.9437 15.4544C15.519 15.2724 15.2633 15.2458 14.8517 15.3434C14.5354 15.4145 14.5137 15.4145 14.2277 15.3301C13.4781 15.1126 13.1791 15.0726 12.8888 15.1658C12.7371 15.2102 12.6288 15.2191 12.4988 15.188C12.3384 15.1525 12.2171 15.1658 11.9225 15.2591C11.8531 15.2768 11.7751 15.2546 11.6581 15.1747C11.4241 15.0149 11.2205 14.9705 10.8392 14.9927C10.3928 15.0238 10.3538 15.0327 10.1545 15.1703C9.99852 15.2813 9.97253 15.2857 9.7992 15.2369C9.38755 15.1259 9.03222 15.2236 8.82423 15.5077C8.57724 15.8451 8.44291 16.1559 8.41691 16.4401C8.36491 17.0838 8.37791 17.3058 8.47324 17.439C8.62057 17.6433 8.63791 17.7498 8.53824 17.8874C8.40391 18.0872 8.34325 18.3847 8.40391 18.5889C8.52524 19.0152 8.57291 19.3215 8.53391 19.4325C8.47758 19.5834 8.47758 19.8143 8.53824 19.9697C8.60324 20.1384 8.59891 21.0353 8.53391 21.204C8.47324 21.3682 8.51658 22.1585 8.60324 22.3761C8.65524 22.5004 8.65524 22.5359 8.61191 22.567C8.53391 22.6158 8.41258 22.6114 8.38225 22.5581C8.36491 22.5315 8.27825 22.4738 8.18725 22.4249C7.9706 22.3139 7.64994 22.3095 7.43761 22.4205C7.28162 22.5004 7.27729 22.5004 7.07796 22.3983C6.84397 22.274 6.60564 22.2606 6.38032 22.3583C6.051 22.5004 5.804 22.416 5.89067 22.1852C5.91233 22.1186 5.94267 21.8344 5.95133 21.5458C5.973 21.0619 5.96433 21.0086 5.86034 20.7733C5.76067 20.5469 5.75634 20.5069 5.804 20.3737C5.83867 20.2894 5.869 19.952 5.87767 19.5834C5.90367 18.6733 5.90367 18.4824 5.869 18.2071C5.84734 18.0428 5.86034 17.8519 5.908 17.6211C6.00333 17.146 5.99466 16.9728 5.86034 16.702L5.74767 16.4623L5.83 16.2358C5.89067 16.0538 5.91233 15.8496 5.921 15.2324C5.92967 14.8062 5.947 14.2513 5.96 14.0026C5.973 13.643 5.96433 13.5142 5.90367 13.3589C5.843 13.2035 5.83 13.0569 5.843 12.6041C5.84734 12.2667 5.83434 12.0092 5.80834 11.9559C5.77367 11.8893 5.77801 11.8182 5.83 11.6717C5.90367 11.4631 5.882 11.099 5.78234 10.8592C5.73467 10.7349 5.74334 10.7039 5.85167 10.4996C5.921 10.3753 6.05533 10.211 6.15066 10.1311C6.24599 10.0512 6.37165 9.89581 6.42798 9.77594C6.50165 9.62942 6.59698 9.52731 6.74864 9.42963C6.89163 9.3364 6.98696 9.23872 7.04329 9.11441C7.09096 9.00785 7.17329 8.91018 7.23829 8.88354C7.39862 8.8125 7.56328 8.62603 7.64561 8.41736C7.68461 8.31968 7.7756 8.17761 7.8406 8.10657C7.90993 8.0311 7.99659 7.90234 8.03126 7.81799C8.13959 7.56048 8.24792 7.42284 8.46025 7.28521C8.58591 7.20529 8.69424 7.08542 8.7549 6.96555C8.91523 6.64588 9.26622 6.27738 9.57821 6.10423C9.7082 6.02875 9.8642 5.88667 9.97253 5.73572C10.0765 5.59809 10.1892 5.46933 10.2239 5.44713C10.3235 5.38054 10.5272 5.13635 10.5272 5.08307C10.5272 4.99872 10.7352 4.76341 10.9432 4.61689C11.0472 4.54586 11.1642 4.42598 11.1988 4.35494C11.2378 4.27947 11.3331 4.19511 11.4285 4.15515C11.5151 4.1152 11.6365 4.03972 11.6928 3.98644C11.8271 3.85769 11.9571 3.5691 11.9571 3.39151C11.9571 3.26719 11.9875 3.22724 12.1911 3.09404C12.3211 3.00969 12.4381 2.92089 12.4511 2.89425C12.4988 2.81878 12.5378 2.83209 12.7111 2.97417ZM13.3827 17.4346C13.5561 17.5234 14.128 17.5989 14.3707 17.5678L14.5527 17.5411V17.7986C14.5527 17.9363 14.531 18.2293 14.505 18.4513C14.466 18.7843 14.4704 18.882 14.5267 19.0462C14.5917 19.2283 14.5874 19.246 14.4834 19.4458C14.3707 19.6634 14.3707 19.7122 14.4487 20.4936C14.4964 20.9598 14.4834 21.3727 14.3967 22.2207L14.3707 22.4826L13.9764 22.4516C13.7467 22.4382 13.5171 22.4427 13.4217 22.4693C13.2917 22.5093 13.2311 22.5048 13.1314 22.4471C12.9364 22.345 12.3384 22.3805 11.9961 22.5182C11.9138 22.5492 11.8055 22.5404 11.5498 22.4693C11.3418 22.4116 11.1252 22.3805 10.9908 22.3894C10.7698 22.4027 10.7612 22.3983 10.6875 22.2473C10.6008 22.0742 10.6138 21.8389 10.7265 21.6169C10.7785 21.5103 10.7915 21.346 10.7872 20.8532C10.7828 20.4803 10.8002 20.1429 10.8348 20.0185C10.8782 19.8454 10.8738 19.7832 10.8132 19.5968C10.7612 19.4458 10.7395 19.2416 10.7395 18.8953C10.7395 18.5623 10.7178 18.3403 10.6702 18.2027C10.6095 18.0206 10.6095 17.9585 10.6572 17.7276C10.7005 17.5145 10.7308 17.4568 10.8045 17.439C10.9648 17.3991 11.9745 17.4435 12.1001 17.4923C12.2604 17.5545 12.4858 17.5545 12.6374 17.4879C12.7024 17.4612 12.8671 17.4257 12.9971 17.4079C13.1271 17.3902 13.2354 17.3724 13.2397 17.368C13.2397 17.368 13.3047 17.3946 13.3827 17.4346Z" fill="#767676"/>
</svg>

<svg width="25" height="25" fill="none" xmlns="http://www.w3.org/2000/svg"><path d="M12.217.204c-.178.106-.399.235-.485.284a1.421 1.421 0 0 0-.303.27 1.03 1.03 0 0 1-.274.245c-.069.04-.26.19-.42.346-.234.222-.299.32-.346.489-.04.155-.091.235-.187.297a.753.753 0 0 0-.195.195c-.03.063-.16.165-.286.227a.848.848 0 0 0-.316.257c-.048.08-.156.2-.243.267-.169.137-.325.413-.325.581 0 .085-.034.12-.156.16-.22.076-.437.289-.567.55-.061.125-.143.245-.182.267-.165.098-.572.542-.655.715a.477.477 0 0 1-.264.266c-.169.08-.277.191-.529.542-.065.093-.177.244-.247.342-.073.093-.13.2-.13.23 0 .032-.065.094-.138.134-.191.093-.585.528-.65.71-.03.085-.065.151-.087.151-.065 0-.33.271-.377.39a.335.335 0 0 1-.2.178c-.26.098-.54.511-.54.795 0 .027-.07.076-.153.102-.23.08-.398.249-.541.542-.165.333-.403.577-.633.648a.925.925 0 0 0-.537.528c-.065.21-.143.302-.356.427a.757.757 0 0 0-.26.253c-.047.084-.225.288-.39.453-.195.195-.303.346-.324.435-.018.102-.07.16-.187.222-.255.133-.342.275-.48.755-.031.11-.1.293-.157.408-.173.36-.108.835.143 1.061a.882.882 0 0 0 1.01.107.745.745 0 0 1 .303-.111c.17-.005.446-.147.572-.298a.777.777 0 0 1 .208-.186c.165-.094.347-.4.377-.63.017-.12.043-.218.065-.218.091 0 .602-.55.65-.702a.823.823 0 0 1 .139-.262l.086-.097.126.204.126.204-.104.116c-.217.24-.269.475-.19.892.047.235.047.32.003.422-.078.186-.073.537.013.719.061.138.065.19.018.44-.03.155-.044.315-.03.355a.698.698 0 0 1-.022.266.729.729 0 0 0 .004.409c.03.115.07.36.087.541.017.182.056.395.09.475.048.12.044.165-.025.32-.065.146-.074.244-.048.546.017.266.009.435-.039.613-.082.31-.09 1.447-.013 1.63.035.079.056.425.065 1.011.004.489.013.96.017 1.044.005.084-.008.24-.026.346-.039.218.044.568.234.999.135.297.3.484.494.56.148.057.464.062.603.008.069-.022.23-.004.511.071.407.107.416.107.823.036.226-.04.499-.098.607-.129.16-.044.221-.044.342.009.234.098 1.89.071 2.076-.031.16-.089.342-.053.555.093.177.129.23.147.494.147.242 0 .32-.018.433-.102l.134-.103.234.116c.251.129.217.129.953.026.594-.08.69-.088.88-.044a.733.733 0 0 0 .325.005.373.373 0 0 1 .269.017.937.937 0 0 0 .641 0 .913.913 0 0 1 .386-.035c.13.009.312-.005.394-.031.243-.085.646-.076.784.017.096.067.234.08.793.094.598.013.728.004 1.075-.09l.394-.101.148.102c.199.142.628.284.858.284.25 0 .437-.098.654-.337.165-.187.19-.2.32-.165.213.054.473.036.637-.053.2-.102.685-.63.733-.8.021-.07.052-.337.07-.58.02-.356.012-.485-.04-.613-.06-.147-.06-.183-.008-.289.1-.19.125-.426.078-.657-.113-.51-.152-.728-.148-.782 0-.03.018-.341.03-.697.014-.355.044-.706.066-.777.065-.2.069-1.03.013-1.323a1.84 1.84 0 0 0-.126-.381c-.074-.125-.07-.13.117-.4l.19-.275.013-.586c.013-.458 0-.63-.056-.786-.052-.147-.065-.32-.056-.666.021-.848-.009-1.292-.096-1.5-.078-.183-.082-.2-.013-.312.04-.066.079-.124.083-.133a.385.385 0 0 1 .125.045c.061.026.152.128.2.222.043.088.147.235.225.315.074.084.204.235.282.333a.836.836 0 0 0 .281.235.54.54 0 0 1 .239.2c.117.182.416.395.637.453.546.146.862.106 1.135-.138a.773.773 0 0 0 .273-.626c0-.257-.048-.382-.234-.59a.79.79 0 0 1-.195-.427c-.074-.417-.29-.652-.685-.745-.177-.045-.23-.08-.299-.205a.83.83 0 0 0-.173-.23 3.425 3.425 0 0 1-.325-.387 4.134 4.134 0 0 0-.373-.444c-.078-.08-.143-.168-.143-.204 0-.084-.273-.377-.39-.413-.056-.018-.134-.138-.212-.31-.087-.196-.173-.316-.282-.387-.082-.058-.164-.146-.177-.2-.04-.16-.213-.333-.533-.546-.243-.155-.316-.23-.338-.333a.88.88 0 0 0-.46-.617 1.15 1.15 0 0 0-.299-.115c-.047 0-.112-.08-.173-.205a.726.726 0 0 0-.282-.324c-.108-.066-.19-.15-.19-.195 0-.151-.126-.329-.394-.568-.148-.13-.295-.307-.33-.391-.065-.16-.507-.64-.715-.777-.07-.044-.121-.107-.121-.133 0-.08-.23-.32-.381-.4-.078-.04-.14-.098-.14-.129 0-.093-.19-.333-.376-.47a1.03 1.03 0 0 1-.273-.338.848.848 0 0 0-.2-.275 1.205 1.205 0 0 1-.246-.275 1.215 1.215 0 0 0-.412-.35c-.2-.112-.29-.192-.355-.316-.044-.093-.2-.275-.347-.404-.147-.129-.303-.31-.347-.404-.082-.16-.329-.395-.416-.395-.069 0-.364-.391-.364-.48 0-.31-.22-.626-.567-.803-.399-.205-.62-.191-1.036.062Zm.494 2.77c.091.076.247.164.355.209.17.066.213.11.351.382.104.204.213.346.317.417a.972.972 0 0 1 .23.235.794.794 0 0 0 .225.227c.082.053.151.115.151.142 0 .022.04.102.091.173.048.071.109.204.135.289.052.195.281.461.498.577.277.142.355.222.494.488.173.342.225.395.503.528.125.063.26.16.294.214a.83.83 0 0 0 .239.204c.203.115.346.306.346.462 0 .177.078.346.295.63.234.31.286.36.468.444.095.044.169.138.251.306.07.151.174.28.256.333.078.05.182.147.238.222a.86.86 0 0 0 .269.227.486.486 0 0 1 .238.248.992.992 0 0 0 .204.293c.2.187.268.48.182.742a.764.764 0 0 0-.035.377c.017.102.035.422.035.715.004.44.017.56.082.657.065.102.07.151.035.267-.078.248-.056 1.043.039 1.256.065.155.073.257.056.56-.017.204-.052.412-.087.466-.09.142-.164.95-.104 1.132.03.08.066.546.079 1.034.021.8.017.906-.052 1.044-.113.221-.104.559.017.799.095.186.095.208.043.541-.039.262-.043.382-.004.51.039.143.035.232-.035.52-.104.418-.104.484-.021.808.052.21.056.302.012.533-.047.258-.06.28-.186.306l-.247.05a.585.585 0 0 1-.299-.045c-.143-.058-.26-.071-.554-.049-.204.018-.425.049-.486.076-.086.03-.195.022-.407-.032a1.736 1.736 0 0 0-.46-.057l-.177.018.035-.205c.017-.11.034-.27.043-.355.004-.084.035-.253.06-.368a.668.668 0 0 0-.008-.422c-.043-.138-.056-.324-.043-.542.021-.328.021-.63.008-.932-.008-.191.057-.675.148-1.084.052-.24.056-.346.021-.51-.026-.111-.047-.444-.047-.737.004-.67-.052-1.008-.208-1.288-.174-.306-.273-.395-.65-.555-.425-.182-.68-.208-1.092-.11-.317.07-.338.07-.624-.014-.75-.217-1.049-.257-1.34-.164a.698.698 0 0 1-.39.022c-.16-.036-.28-.022-.575.071-.07.018-.148-.004-.265-.084-.234-.16-.438-.205-.819-.182-.446.03-.485.04-.684.177-.156.111-.182.116-.356.067-.411-.111-.767-.013-.975.27-.247.338-.381.649-.407.933-.052.644-.04.866.056.999.148.204.165.31.065.448-.134.2-.195.498-.134.702.121.426.169.733.13.844a.844.844 0 0 0 .004.537c.065.168.06 1.065-.004 1.234-.06.164-.017.954.07 1.172.051.124.051.16.008.191-.078.049-.2.044-.23-.009a.765.765 0 0 0-.195-.133.886.886 0 0 0-.75-.005c-.155.08-.16.08-.359-.022a.777.777 0 0 0-.698-.04c-.329.142-.576.058-.49-.173.022-.066.053-.35.061-.64.022-.483.013-.536-.09-.772-.1-.226-.105-.266-.057-.4.035-.084.065-.421.074-.79.026-.91.026-1.1-.009-1.376a1.773 1.773 0 0 1 .039-.586c.095-.475.087-.648-.048-.919l-.112-.24.082-.226c.06-.182.082-.386.091-1.004.009-.426.026-.98.039-1.23.013-.359.004-.488-.056-.643-.061-.155-.074-.302-.061-.755.004-.337-.009-.595-.035-.648-.034-.067-.03-.138.022-.284.074-.209.052-.573-.048-.813-.047-.124-.039-.155.07-.36.069-.124.203-.288.299-.368.095-.08.22-.235.277-.355a.838.838 0 0 1 .32-.346.747.747 0 0 0 .295-.316c.048-.106.13-.204.195-.23.16-.072.325-.258.408-.467.039-.097.13-.24.195-.31.069-.076.156-.205.19-.289.109-.258.217-.395.43-.533.125-.08.233-.2.294-.32.16-.32.511-.688.823-.86.13-.076.286-.218.395-.37.103-.137.216-.266.25-.288.1-.066.304-.31.304-.364 0-.084.208-.32.416-.466a.9.9 0 0 0 .256-.262.495.495 0 0 1 .23-.2c.086-.04.207-.115.264-.169.134-.128.264-.417.264-.594 0-.125.03-.165.234-.298.13-.084.247-.173.26-.2.048-.075.087-.062.26.08Zm.672 14.46c.173.09.745.165.988.134l.182-.027v.258c0 .137-.022.43-.048.652-.039.333-.035.431.022.595.065.182.06.2-.044.4-.112.217-.112.266-.034 1.048.047.466.034.879-.052 1.727l-.026.262-.395-.031c-.23-.014-.459-.01-.554.017-.13.04-.19.036-.29-.022-.196-.102-.794-.066-1.136.071-.082.031-.19.022-.446-.049a1.902 1.902 0 0 0-.56-.08c-.22.014-.229.01-.303-.142-.086-.173-.073-.408.04-.63.051-.107.064-.271.06-.764-.004-.373.013-.71.048-.835.043-.173.039-.235-.022-.421-.052-.151-.074-.355-.074-.702 0-.333-.021-.555-.069-.692-.06-.182-.06-.244-.013-.475.043-.213.074-.271.148-.289.16-.04 1.17.005 1.295.053a.77.77 0 0 0 .537-.004c.065-.027.23-.062.36-.08a2.36 2.36 0 0 0 .243-.04s.065.027.143.067Z" fill="#767676"/></svg>
